svgs/1F914.svg

<svg xmlns="http://www.w3.org/2000/svg" xmlns:xlink="http://www.w3.org/1999/xlink" preserveAspectRatio="none" viewBox="0 0 72 72"><defs><path id="a" fill="#FCC21B" d="M122 84.85q0-24.55-7.75-42.8Q100.1 8.7 64 8.7T13.75 42.05Q6 60.25 6 84.85 6 94.3 23 101q17 6.65 41 6.65t41-6.65q17-6.7 17-16.15z"/><path id="c" fill="#2F2F2F" d="M45.75 45.5q2.75.4 4.9-1.6 2.2-2 2.6-5.25.4-3.25-1.2-5.7-1.6-2.5-4.3-2.9-2.65-.35-4.9 1.65-2.25 2.05-2.6 5.25-.35 3.2 1.25 5.7t4.25 2.85z"/><path id="d" fill="#2F2F2F" d="M86 48.6q1.9-2.4 1.8-5.65 0-.6-.2-1.6-.2-.55-.6-.7-4.75-2.25-9.3-3.6-.7-.15-1 .3-2.15 2.5-2 5.9.1 3.2 2.1 5.5t4.7 2.2q2.65 0 4.5-2.35z"/><path id="e" fill="#FAC036" d="M33.5 73.75q-.6-2.5-2.2-4.7-.95-1.4-2.75-2.25-1.75-.85-3.65-.85-2.2 0-3.5 1-1.7 1.25-1.8 4.15-.05 1.6.6 5.45.15 1.3.4 3.4-.05 2.35-.55 4.15-.35 1.15-1.2 3.05-.95 2.25-1.25 3.15-.65 2.1-.85 4.45-.55 6.8-.2 10.05.65 5.7 3.95 9.55 3.1 3.45 7.1 5.05 4 1.6 9.6 1.6l2.45-.05q15.25-.9 16.4-5.9.5-1.6-.05-3.3.55-.5 1.05-1.5 1.7-3.65.45-6 .65-.85.7-.9.85-1.4 1.05-3.2.15-1.8-.35-3.3-.15-.35-.2-.5 4.3-.55 9.4-1.6 5.5-1.1 6.95-1.9 1.6-.85 2.5-2.5.95-1.7.8-3.6-.05-1.7-1-3-.9-1.25-2.4-1.8-.95-.4-2.7-.4-2.2 0-8 1l-3.7.6q-7.85 1.15-14.8 1.7-.9 0-2.5.2-4.7.4-5.25.4-1.5 0-2.1-.4-.9-.65-1.3-1.45-.5-1-.5-2.75 0-4.55-.6-7.1z"/><path id="f" fill="#2F2F2F" d="M29.4 65q-2.3-1.05-4.65-1.05-2.7 0-4.7 1.4-2.3 1.7-2.55 5.25-.2 2.15.55 6.25.4 2.2.4 3 0 2.1-.4 3.65-.3 1.05-1.1 2.75-.95 2.25-1.3 3.35-.7 2.3-.9 4.85-.65 7.25-.2 10.7.7 6.05 4.4 10.35 3.3 3.8 7.75 5.65 4.45 1.8 10.45 1.8 1.7 0 2.6-.1 9.95-.55 14.45-2.95 3.05-1.65 3.75-4.45.4-1.7.2-3.35l.7-1.15q1.65-3.45.9-6.5l.25-.35q1.7-2.95 1.25-6.4 4.4-.65 8.6-1.6 4.7-1.05 6.2-1.8 2.15-1.05 3.35-3.25 1.2-2.2 1.1-4.75-.15-2.3-1.4-4.1-1.25-1.75-3.3-2.5-1.5-.5-3.3-.5-2.45 0-8.45 1l-3.7.6q-2.9.45-8.2 1-5.25.55-6.5.7-1.8.2-2.5.2-4.4.4-5.1.4-.9-.1-1-.1-.5-.4-.65-.7-.25-.6-.25-1.8-.1-4.65-.65-7.25-.7-3-2.55-5.65-1.45-1.65-3.55-2.6m-7.1 3.55q1.05-.6 2.45-.6 1.4 0 2.7.6 1.4.6 2.1 1.7 1.35 2 1.9 4.15.55 2.25.6 6.55 0 2.15.7 3.6.65 1.2 2 2.2 1.1.7 3.25.7.6 0 7.9-.7 12.4-1.35 14.9-1.7l6-1q3.7-.6 5.5-.6 1.25 0 2 .3 2.2.8 2.1 3.55-.1 2.65-2.2 3.65-1.5.7-7.2 1.9-5.95 1.2-9.7 1.5-4.5.35-4.5.8-.1.35.9.5 1.6.2 2.1.4 1.35.45 1.5 2.55.15 2.05-.8 3.55-.4.65-1.15 1.05-.55.25-.55.65 0 .3.7 1 .5.7.4 2.1-.15 1.25-.7 2.3-.4.65-.45.7-.25.35-.65.5-.8.25-.5 1.2.4.7.5 1.15.15.75-.1 1.75-.45 1.7-4.45 2.9-3.9 1.1-10.15 1.5l-2.3.1q-5.15 0-8.75-1.4-3.7-1.45-6.45-4.6-2.9-3.3-3.45-8.2-.4-3.3.25-9.9.3-3.15 2.1-7.35 1.6-3.7 1.6-7.65-.6-3.95-.9-6.2-.6-4.15.8-5.2z"/><path id="b" fill="none" stroke="#2F2F2F" stroke-linecap="round" stroke-linejoin="miter" stroke-miterlimit="10" stroke-width="3" d="M24.901 36.435l2.055-.582q2.606-.583 5.213-.583 8.402 0 13.953 5.888"/></defs><use transform="translate(-3.25 -4.35) scale(.61331)" xlink:href="#a"/><use transform="matrix(1 0 0 1 -.03 -.026)" xlink:href="#b"/><use transform="translate(-3.25 -4.35) scale(.61331)" xlink:href="#c"/><use transform="translate(-3.25 -4.35) scale(.61331)" xlink:href="#d"/><use transform="translate(-3.25 -4.35) scale(.61331)" xlink:href="#e"/><use transform="translate(-3.25 -4.35) scale(.61331)" xlink:href="#f"/></svg>

<svg xmlns="http://www.w3.org/2000/svg" version="1.1" xmlns:xlink="http://www.w3.org/1999/xlink" preserveAspectRatio="none" x="0px" y="0px" width="72px" height="72px" viewBox="0 0 72 72">
<defs>
<g id="Layer0_0_MEMBER_0_MEMBER_0_FILL">
<path fill="#FCC21B" stroke="none" d="
M 122 84.85
Q 122 60.3 114.25 42.05 100.1 8.7 64 8.7 27.9 8.7 13.75 42.05 6 60.25 6 84.85 6 94.3 23 101 40 107.65 64 107.65 88 107.65 105 101 122 94.3 122 84.85 Z"/>
</g>

<g id="Layer0_0_MEMBER_0_MEMBER_1_MEMBER_1_MEMBER_0_FILL">
<path fill="#2F2F2F" stroke="none" d="
M 45.75 45.5
Q 48.5 45.9 50.65 43.9 52.85 41.9 53.25 38.65 53.65 35.4 52.05 32.95 50.45 30.45 47.75 30.05 45.1 29.7 42.85 31.7 40.6 33.75 40.25 36.95 39.9 40.15 41.5 42.65 43.1 45.15 45.75 45.5 Z"/>
</g>

<g id="Layer0_0_MEMBER_0_MEMBER_1_MEMBER_1_MEMBER_1_FILL">
<path fill="#2F2F2F" stroke="none" d="
M 86 48.6
Q 87.9 46.2 87.8 42.95 87.8 42.35 87.6 41.35 87.4 40.8 87 40.65 82.25 38.4 77.7 37.05 77 36.9 76.7 37.35 74.55 39.85 74.7 43.25 74.8 46.45 76.8 48.75 78.8 51.05 81.5 50.95 84.15 50.95 86 48.6 Z"/>
</g>

<g id="Layer0_0_MEMBER_1_MEMBER_0_FILL">
<path fill="#FAC036" stroke="none" d="
M 33.5 73.75
Q 32.9 71.25 31.3 69.05 30.35 67.65 28.55 66.8 26.8 65.95 24.9 65.95 22.7 65.95 21.4 66.95 19.7 68.2 19.6 71.1 19.55 72.7 20.2 76.55 20.35 77.85 20.6 79.95 20.55 82.3 20.05 84.1 19.7 85.25 18.85 87.15 17.9 89.4 17.6 90.3 16.95 92.4 16.75 94.75 16.2 101.55 16.55 104.8 17.2 110.5 20.5 114.35 23.6 117.8 27.6 119.4 31.6 121 37.2 121
L 39.65 120.95
Q 54.9 120.05 56.05 115.05 56.55 113.45 56 111.75 56.55 111.25 57.05 110.25 58.75 106.6 57.5 104.25 58.15 103.4 58.2 103.35 59.05 101.95 59.25 100.15 59.4 98.35 58.9 96.85 58.75 96.5 58.7 96.35 63 95.8 68.1 94.75 73.6 93.65 75.05 92.85 76.65 92 77.55 90.35 78.5 88.65 78.35 86.75 78.3 85.05 77.35 83.75 76.45 82.5 74.95 81.95 74 81.55 72.25 81.55 70.05 81.55 64.25 82.55
L 60.55 83.15
Q 52.7 84.3 45.75 84.85 44.85 84.85 43.25 85.05 38.55 85.45 38 85.45 36.5 85.45 35.9 85.05 35 84.4 34.6 83.6 34.1 82.6 34.1 80.85 34.1 76.3 33.5 73.75 Z"/>
</g>

<g id="Layer0_0_MEMBER_1_MEMBER_1_FILL">
<path fill="#2F2F2F" stroke="none" d="
M 29.4 65
Q 27.1 63.95 24.75 63.95 22.05 63.95 20.05 65.35 17.75 67.05 17.5 70.6 17.3 72.75 18.05 76.85 18.45 79.05 18.45 79.85 18.45 81.95 18.05 83.5 17.75 84.55 16.95 86.25 16 88.5 15.65 89.6 14.95 91.9 14.75 94.45 14.1 101.7 14.55 105.15 15.25 111.2 18.95 115.5 22.25 119.3 26.7 121.15 31.15 122.95 37.15 122.95 38.85 122.95 39.75 122.85 49.7 122.3 54.2 119.9 57.25 118.25 57.95 115.45 58.35 113.75 58.15 112.1
L 58.85 110.95
Q 60.5 107.5 59.75 104.45
L 60 104.1
Q 61.7 101.15 61.25 97.7 65.65 97.05 69.85 96.1 74.55 95.05 76.05 94.3 78.2 93.25 79.4 91.05 80.6 88.85 80.5 86.3 80.35 84 79.1 82.2 77.85 80.45 75.8 79.7 74.3 79.2 72.5 79.2 70.05 79.2 64.05 80.2
L 60.35 80.8
Q 57.45 81.25 52.15 81.8 46.9 82.35 45.65 82.5 43.85 82.7 43.15 82.7 38.75 83.1 38.05 83.1 37.15 83 37.05 83 36.55 82.6 36.4 82.3 36.15 81.7 36.15 80.5 36.05 75.85 35.5 73.25 34.8 70.25 32.95 67.6 31.5 65.95 29.4 65
M 22.3 68.55
Q 23.35 67.95 24.75 67.95 26.15 67.95 27.45 68.55 28.85 69.15 29.55 70.25 30.9 72.25 31.45 74.4 32 76.65 32.05 80.95 32.05 83.1 32.75 84.55 33.4 85.75 34.75 86.75 35.85 87.45 38 87.45 38.6 87.45 45.9 86.75 58.3 85.4 60.8 85.05 61.1 85 66.8 84.05 70.5 83.45 72.3 83.45 73.55 83.45 74.3 83.75 76.5 84.55 76.4 87.3 76.3 89.95 74.2 90.95 72.7 91.65 67 92.85 61.05 94.05 57.3 94.35 52.8 94.7 52.8 95.15 52.7 95.5 53.7 95.65 55.3 95.85 55.8 96.05 57.15 96.5 57.3 98.6 57.45 100.65 56.5 102.15 56.1 102.8 55.35 103.2 54.8 103.45 54.8 103.85 54.8 104.15 55.5 104.85 56 105.55 55.9 106.95 55.75 108.2 55.2 109.25 54.8 109.9 54.75 109.95 54.5 110.3 54.1 110.45 53.3 110.7 53.6 111.65 54 112.35 54.1 112.8 54.25 113.55 54 114.55 53.55 116.25 49.55 117.45 45.65 118.55 39.4 118.95
L 37.1 119.05
Q 31.95 119.05 28.35 117.65 24.65 116.2 21.9 113.05 19 109.75 18.45 104.85 18.05 101.55 18.7 94.95 19 91.8 20.8 87.6 22.4 83.9 22.4 79.95 21.8 76 21.5 73.75 20.9 69.6 22.3 68.55 Z"/>
</g>

<path id="Layer0_0_MEMBER_0_MEMBER_1_MEMBER_0_1_STROKES" stroke="#2F2F2F" stroke-width="3" stroke-linejoin="miter" stroke-linecap="round" stroke-miterlimit="10" fill="none" d="
M 24.901010131835935 36.43523254394531
L 26.955604553222656 35.85258636474609
Q 29.562179565429688 35.26994018554687 32.16875457763672 35.26994018554687 40.571125793457036 35.26994018554687 46.12159729003906 41.15773315429688"/>
</defs>

<g id="Layer_1">
<g transform="matrix( 0.613311767578125, 0, 0, 0.613311767578125, -3.25,-4.35) ">
<use xlink:href="#Layer0_0_MEMBER_0_MEMBER_0_FILL"/>
</g>

<g transform="matrix( 0.613311767578125, 0, 0, 0.613311767578125, -3.25,-4.35) ">
<use xlink:href="#Layer0_0_MEMBER_0_MEMBER_1_MEMBER_0_1_STROKES" transform="matrix( 1.6304779052734375, 0, 0, 1.6304779052734375, 5.25,7.05) "/>
</g>

<g transform="matrix( 0.613311767578125, 0, 0, 0.613311767578125, -3.25,-4.35) ">
<use xlink:href="#Layer0_0_MEMBER_0_MEMBER_1_MEMBER_1_MEMBER_0_FILL"/>
</g>

<g transform="matrix( 0.613311767578125, 0, 0, 0.613311767578125, -3.25,-4.35) ">
<use xlink:href="#Layer0_0_MEMBER_0_MEMBER_1_MEMBER_1_MEMBER_1_FILL"/>
</g>

<g transform="matrix( 0.613311767578125, 0, 0, 0.613311767578125, -3.25,-4.35) ">
<use xlink:href="#Layer0_0_MEMBER_1_MEMBER_0_FILL"/>
</g>

<g transform="matrix( 0.613311767578125, 0, 0, 0.613311767578125, -3.25,-4.35) ">
<use xlink:href="#Layer0_0_MEMBER_1_MEMBER_1_FILL"/>
</g>
</g>
</svg>
